static/img/menus/ico-air-filter.svg

<svg width="16" height="16" viewBox="0 0 16 16" fill="none" xmlns="http://www.w3.org/2000/svg">
<path d="M5.08928 13.8214C5.08928 14.1375 5.34285 14.3929 5.65714 14.3929H10.3429C10.6571 14.3929 10.9107 14.1375 10.9107 13.8214V10.3214H5.08928V13.8214ZM14.5732 1.60714H1.42678C0.989283 1.60714 0.716069 2.08393 0.935711 2.46429L4.8875 9.17857H11.1161L15.0679 2.46429C15.2839 2.08393 15.0107 1.60714 14.5732 1.60714Z" fill="#969494"/>
</svg>

<svg xmlns="http://www.w3.org/2000/svg" width="16" height="16" fill="none" viewBox="0 0 16 16"><path fill="#969494" d="M5.09 13.821c0 .316.253.572.567.572h4.686a.57.57 0 0 0 .568-.572v-3.5H5.089zm9.483-12.214H1.427a.57.57 0 0 0-.491.857L4.888 9.18h6.228l3.952-6.715a.574.574 0 0 0-.495-.857"/></svg>
